logos/flannel.svg

<?xml version="1.0" encoding="UTF-8" standalone="no"?>
<svg width="256px" height="477px" viewBox="0 0 256 477" version="1.1" xmlns="http://www.w3.org/2000/svg" xmlns:xlink="http://www.w3.org/1999/xlink" preserveAspectRatio="xMidYMid">
    <g>
        <path d="M71.3902254,220.44384 L113.894308,220.44384 C116.08495,220.44384 117.861731,218.667115 117.861731,216.476544 L117.861731,145.639406 C117.861731,93.1436975 160.571661,50.4351411 213.069056,50.4351411 L241.402222,50.4351411 C243.592864,50.4351411 245.369646,48.6584166 245.369646,46.4678454 L245.369646,3.96729576 C245.369646,1.77672448 243.592864,0 241.402222,0 L213.06689,0 C132.758528,0 67.4228021,65.3336259 67.4228021,145.639406 L67.4228021,216.476544 C67.4228021,218.667115 69.1995837,220.44384 71.3902254,220.44384 L71.3902254,220.44384 Z M188.280786,49.5922804 C181.942876,51.2238334 175.849816,53.4642397 170.070942,56.2484969 C162.844641,59.7304436 156.105872,64.0617512 149.982476,69.1145823 C146.309738,72.1458476 142.858015,75.4371213 139.655474,78.960236 C137.52117,81.3089791 135.497372,83.7595588 133.594916,86.305475 C130.739064,90.1232659 128.151897,94.1555637 125.861582,98.3698675 C128.151897,94.153397 130.739064,90.1232659 133.594916,86.305475 C135.499539,83.7595588 137.52117,81.3089791 139.655474,78.960236 C142.855848,75.4371213 146.307571,72.1458476 149.982476,69.1145823 C156.105872,64.0617512 162.844641,59.7304436 170.070942,56.2484969 C175.851982,53.4642397 181.942876,51.2216667 188.280786,49.5922804 C196.202632,47.5533807 204.508003,46.4700121 213.06689,46.4700121 L213.06689,46.4700121 C204.508003,46.4700121 196.202632,47.5533807 188.280786,49.5922804 L188.280786,49.5922804 Z M241.402222,3.96729576 L241.402222,46.4700121 L241.402222,3.96729576 Z M252.039077,155.840404 L252.028243,155.840404 L128.060891,155.840404 C125.870249,155.840404 124.093468,157.617129 124.093468,159.8077 L124.093468,202.310416 C124.093468,204.500988 125.870249,206.277712 128.060891,206.277712 L244.058728,206.277712 C245.967684,206.277712 247.60579,204.917001 247.956813,203.042774 L255.887326,160.752397 C255.960997,160.449054 256,160.134877 256,159.809867 C256,157.617129 254.229719,155.840404 252.039077,155.840404 Z M238.756551,226.677543 L238.745717,226.677543 L198.89814,226.677543 C196.707498,226.677543 194.930716,228.454267 194.930716,230.644838 L194.930716,273.147555 C194.930716,275.338126 196.707498,277.11485 198.89814,277.11485 L230.776202,277.11485 C232.685159,277.11485 234.323265,275.754139 234.674287,273.879912 L242.6048,231.589536 C242.678472,231.288359 242.717474,230.972016 242.717474,230.647005 C242.717474,228.4521 240.947193,226.677543 238.756551,226.677543 Z M241.402222,70.8371383 L213.06689,70.8371383 C171.819555,70.8371383 138.262218,104.393397 138.262218,145.639406 C138.262218,147.829977 140.038999,149.606701 142.229641,149.606701 L184.733724,149.606701 C186.924365,149.606701 188.701147,147.829977 188.701147,145.639406 C188.701147,132.203468 199.632687,121.272279 213.069056,121.272279 L241.402222,121.272279 C243.592864,121.272279 245.369646,119.495555 245.369646,117.304984 L245.369646,74.8044341 C245.369646,72.6138628 243.592864,70.8371383 241.402222,70.8371383 Z M185.307927,139.930053 C185.684952,138.08616 186.241821,136.307269 186.959034,134.610713 C186.241821,136.305102 185.684952,138.083993 185.307927,139.930053 L185.307927,139.930053 Z M241.402222,117.304984 L213.06689,117.304984 C204.26532,117.304984 196.399811,121.317781 191.201642,127.616486 C196.397645,121.319948 204.263153,117.304984 213.06689,117.304984 L241.402222,117.304984 L241.402222,74.8022673 L241.402222,117.304984 Z M184.731557,212.509248 L142.227474,212.509248 C140.036832,212.509248 138.260051,214.285973 138.260051,216.476544 L138.260051,372.316948 C138.260051,397.745776 128.357744,421.65572 110.373247,439.637472 C109.630032,440.380663 109.211838,441.390362 109.211838,442.443397 C109.211838,443.496431 109.630032,444.503964 110.373247,445.249321 L140.426858,475.301966 C141.200408,476.075491 142.21664,476.463337 143.232872,476.463337 C144.249105,476.463337 145.26317,476.075491 146.03672,475.301966 C173.5465,447.795238 188.694646,411.220714 188.694646,372.319115 L188.694646,216.478711 C188.69898,214.285973 186.922198,212.509248 184.731557,212.509248 Z M160.534825,451.526359 C155.442829,459.062271 149.644454,466.084666 143.235039,472.493875 L143.235039,472.493875 C149.644454,466.082499 155.442829,459.062271 160.534825,451.526359 C163.080823,447.758403 165.45131,443.860443 167.631117,439.845479 C165.449143,443.860443 163.080823,447.758403 160.534825,451.526359 L160.534825,451.526359 Z M170.759986,433.737447 C172.749115,429.607646 174.545398,425.367341 176.133667,421.027367 C174.545398,425.367341 172.749115,429.607646 170.759986,433.737447 Z M117.859565,287.311516 C117.859565,285.120944 116.082783,283.34422 113.892141,283.34422 L71.3902254,283.34422 C69.1995837,283.34422 67.4228021,285.120944 67.4228021,287.311516 L67.4228021,372.314781 C67.4228021,378.82366 64.8876381,384.942526 60.2853404,389.546842 C58.7360735,391.096059 58.7360735,393.607308 60.2853404,395.156525 L90.338951,425.209169 C91.1125011,425.982694 92.1287335,426.37054 93.1449659,426.37054 C94.1611983,426.37054 95.1752639,425.982694 95.9509807,425.209169 C110.080728,411.082043 117.861731,392.296432 117.861731,372.314781 L117.861731,287.311516 L117.859565,287.311516 Z M97.7169283,417.374248 C99.8815683,414.750329 101.86203,411.968238 103.636645,409.047477 C101.86203,411.968238 99.8815683,414.750329 97.7169283,417.374248 L97.7169283,417.374248 Z M106.906356,403.026114 C109.39385,397.864946 111.272472,392.354934 112.453381,386.591413 C111.274639,392.354934 109.39385,397.864946 106.906356,403.026114 Z M132.028314,273.145388 L132.028314,230.642672 C132.028314,228.4521 130.251533,226.675376 128.060891,226.675376 L11.9352129,226.675376 C10.0262561,226.675376 8.38815014,228.03392 8.03712743,229.910314 L0.067611933,272.413031 C-0.149068749,273.572235 0.160784626,274.770441 0.914833401,275.678304 C1.66888218,276.586167 2.7869545,277.112684 3.96786422,277.112684 L128.060891,277.112684 C130.251533,277.112684 132.028314,275.335959 132.028314,273.145388 Z M17.2482232,206.275545 L57.2214755,206.275545 C59.4121172,206.275545 61.1888988,204.498821 61.1888988,202.30825 L61.1888988,159.8077 C61.1888988,157.617129 59.4121172,155.840404 57.2214755,155.840404 L25.2177387,155.840404 C23.3087819,155.840404 21.670676,157.201115 21.3196533,159.075343 L13.3501378,201.578059 C13.1334571,202.737264 13.4433105,203.933302 14.1973592,204.843332 C14.9492412,205.751195 16.0694803,206.275545 17.2482232,206.275545 Z" fill="#54A3DA"></path>
    </g>
</svg>

<svg width="256" height="477" xmlns="http://www.w3.org/2000/svg" preserveAspectRatio="xMidYMid">
	<path d="M71.39 220.444h42.504a3.968 3.968 0 0 0 3.968-3.967v-70.838c0-52.495 42.71-95.204 95.207-95.204h28.333a3.968 3.968 0 0 0 3.968-3.967v-42.5A3.968 3.968 0 0 0 241.402 0h-28.335C132.759 0 67.423 65.334 67.423 145.64v70.837a3.968 3.968 0 0 0 3.967 3.967ZM188.28 49.592a98.545 98.545 0 0 0-18.21 6.656 99.278 99.278 0 0 0-20.088 12.867 99.859 99.859 0 0 0-16.387 17.19 99.934 99.934 0 0 1 6.06-7.345 99.423 99.423 0 0 1 10.327-9.845 99.278 99.278 0 0 1 20.089-12.867 98.446 98.446 0 0 1 18.21-6.656 99.326 99.326 0 0 0 0 0Zm53.122-45.625V46.47 3.967ZM252.04 155.84H128.061a3.968 3.968 0 0 0-3.968 3.968v42.502a3.968 3.968 0 0 0 3.968 3.968h115.998a3.966 3.966 0 0 0 3.898-3.235l7.93-42.29a3.98 3.98 0 0 0 .113-.943c0-2.193-1.77-3.97-3.96-3.97Zm-13.282 70.838h-39.859a3.968 3.968 0 0 0-3.967 3.967v42.503a3.968 3.968 0 0 0 3.967 3.967h31.878a3.966 3.966 0 0 0 3.898-3.235l7.93-42.29c.074-.302.113-.618.113-.943 0-2.195-1.77-3.97-3.96-3.97Zm2.645-155.84h-28.335c-41.247 0-74.805 33.555-74.805 74.801a3.968 3.968 0 0 0 3.968 3.968h42.504a3.968 3.968 0 0 0 3.967-3.968c0-13.436 10.932-24.367 24.368-24.367h28.333a3.968 3.968 0 0 0 3.968-3.967v-42.5a3.968 3.968 0 0 0-3.968-3.968Zm-56.094 69.092Zm56.094-22.625h-28.335c-8.802 0-16.667 4.013-21.865 10.311 5.196-6.296 13.061-10.311 21.865-10.311h28.335V74.802v42.503Zm-56.67 95.204h-42.505a3.968 3.968 0 0 0-3.967 3.968v155.84c0 25.429-9.902 49.339-27.887 67.32a3.969 3.969 0 0 0 0 5.612l30.054 30.053a3.957 3.957 0 0 0 2.806 1.161c1.016 0 2.03-.388 2.804-1.161 27.51-27.507 42.658-64.081 42.658-102.983V216.48a3.962 3.962 0 0 0-3.963-3.97Zm-24.197 239.017a142.546 142.546 0 0 0 0 0Zm10.225-17.789Zm-52.9-146.425a3.968 3.968 0 0 0-3.968-3.968H71.39a3.968 3.968 0 0 0-3.967 3.968v85.003c0 6.509-2.535 12.628-7.138 17.232a3.966 3.966 0 0 0 0 5.61l30.054 30.052a3.957 3.957 0 0 0 2.806 1.162 3.96 3.96 0 0 0 2.806-1.162c14.13-14.127 21.91-32.913 21.91-52.894v-85.003h-.001ZM97.717 417.374Zm9.19-14.348Zm25.121-129.88v-42.503a3.968 3.968 0 0 0-3.967-3.968H11.935a3.964 3.964 0 0 0-3.898 3.235l-7.97 42.503a3.97 3.97 0 0 0 3.9 4.7h124.094a3.968 3.968 0 0 0 3.967-3.968Zm-114.78-66.87h39.973a3.968 3.968 0 0 0 3.968-3.968v-42.5a3.968 3.968 0 0 0-3.968-3.968H25.218a3.966 3.966 0 0 0-3.898 3.235l-7.97 42.503a3.973 3.973 0 0 0 .847 3.265 3.962 3.962 0 0 0 3.051 1.433Z" fill="#54A3DA"/>
</svg>
